X:61
T:Rolling in the Rye Grass
R:Reel
S:Kim Vincent
A:Ireland
M:C|
L:1/8
K:D
A3 F DFAF | G2 BG dGBG | ABAF DFAF | GBAG FDDF :|
ABde f2 fd | g2 ge fedB| ABde fdfa | afdf efdB :|
